Newaita-dark/apps/48/deadbeef.svg

<svg height="48pt" viewBox="0 0 48 48" width="48pt" xmlns="http://www.w3.org/2000/svg" xmlns:xlink="http://www.w3.org/1999/xlink"><linearGradient id="a"><stop offset="0" stop-opacity=".313725"/><stop offset=".222222" stop-opacity=".27451"/><stop offset="1" stop-opacity="0"/></linearGradient><radialGradient id="b" cx="450.90894" cy="189.57936" gradientTransform="matrix(.00000026 -.117199 -.210958 -.00000015 49.915931 95.393002)" gradientUnits="userSpaceOnUse" r="21.166656" xlink:href="#a"/><radialGradient id="c" cx="450.90894" cy="189.57936" gradientTransform="matrix(-.00000026 .117199 .210958 .00000015 -29.077997 -11.291218)" gradientUnits="userSpaceOnUse" r="21.166656" xlink:href="#a"/><radialGradient id="d" cx="450.90894" cy="189.57936" gradientTransform="matrix(-.00000026 -.117199 .210958 -.00000015 -29.077997 95.393002)" gradientUnits="userSpaceOnUse" r="21.166656" xlink:href="#a"/><radialGradient id="e" cx="450.90894" cy="189.57936" gradientTransform="matrix(.00000026 .117199 -.210958 .00000015 49.915928 -11.291219)" gradientUnits="userSpaceOnUse" r="21.166656" xlink:href="#a"/><linearGradient id="f" gradientUnits="userSpaceOnUse" x1="23.814786" x2="23.814786" y1="42.0509015" y2="4.34415668747"><stop offset="0" stop-color="#424242"/><stop offset="1" stop-color="#616161"/></linearGradient><linearGradient id="g" gradientUnits="userSpaceOnUse" x1="19.845677" x2="19.845677" y1="13.27472821851" y2="33.12041069922"><stop offset="0" stop-color="#9ccc65"/><stop offset="1" stop-color="#aed581"/></linearGradient><path d="m10.417969 42.050781h3.96875v-1.984375h-3.96875zm0 0" fill="url(#b)"/><path d="m10.417969 42.050781h-3.96875v1.984375h3.96875zm0 0" fill="url(#c)"/><path d="m10.417969 42.050781h-3.96875v-1.984375h3.96875zm0 0" fill="url(#d)"/><path d="m10.417969 42.050781h3.96875v1.984375h-3.96875zm0 0" fill="url(#e)"/><path d="m10.921875 4.34375c-.128906 0-.257813.007812-.386719.023438-.023437.003906-.042968.007812-.0625.007812-.011718.003906-.019531.003906-.027344.007812-.011718 0-.023437 0-.035156.003907-1.289062.21875-2.292968 1.257812-2.449218 2.570312-.003907.019531-.003907.039063-.007813.0625-.011719.125-.019531.25-.015625.375v31.679688.019531c-.011719.53125.117188 1.070312.402344 1.566406.824218 1.429688 2.636718 1.914063 4.066406 1.089844l27.496094-15.878906c.972656-.558594 1.507812-1.578125 1.492187-2.625.015625-1.042969-.519531-2.0625-1.492187-2.625l-27.378906-15.808594c-.328126-.210938-.699219-.355469-1.097657-.425781-.019531-.003907-.042969-.007813-.0625-.007813-.148437-.023437-.292969-.035156-.441406-.035156zm0 0" fill="url(#f)"/><path d="m10.921875 4.34375c-.128906 0-.257813.007812-.386719.023438-.023437.003906-.042968.007812-.0625.007812-.011718.003906-.019531.003906-.027344.007812-.011718 0-.023437 0-.035156.003907-1.289062.21875-2.292968 1.257812-2.449218 2.570312-.003907.019531-.003907.039063-.007813.0625-.011719.125-.019531.25-.015625.375v.371094c.003906-.082031.007812-.167969.015625-.25.003906-.019531.003906-.042969.007813-.0625.15625-1.308594 1.160156-2.351563 2.449218-2.570313.011719 0 .023438-.003906.035156-.003906.007813-.003906.015626-.003906.027344-.003906.019532-.003906.039063-.007812.0625-.011719.128906-.015625.257813-.023437.386719-.023437.148437 0 .292969.011718.441406.035156.019531.003906.042969.007812.0625.011719.398438.066406.769531.214843 1.097657.421875l27.378906 15.808594c.898437.519531 1.421875 1.421874 1.484375 2.378906.007812-.082032.007812-.164063.007812-.25.015625-1.042969-.519531-2.0625-1.492187-2.625l-27.378906-15.808594c-.328126-.210938-.699219-.355469-1.097657-.425781-.019531-.003907-.042969-.007813-.0625-.007813-.148437-.023437-.292969-.035156-.441406-.035156zm-2.984375 34.777344v.097656zm0 0" fill="#fff" fill-opacity=".392157"/><path d="m7.9375 7.269531v.125zm33.429688 15.53125c-.117188.878907-.628907 1.695313-1.464844 2.175781l-27.496094 15.875c-1.429688.828126-3.242188.339844-4.066406-1.085937-.265625-.457031-.394532-.953125-.402344-1.441406v.75.019531c-.011719.53125.117188 1.070312.402344 1.566406.824218 1.429688 2.636718 1.914063 4.066406 1.089844l27.496094-15.878906c.972656-.558594 1.507812-1.578125 1.492187-2.625.003907-.148438-.007812-.300782-.027343-.445313zm-33.429688 15.378907v.042968c0-.007812 0-.015625 0-.023437 0-.007813 0-.015625 0-.019531zm0 0" fill-opacity=".235294"/><path d="m10.925781 4.203125c-.136719 0-.273437.007813-.410156.023437-.019531.003907-.042969.007813-.066406.011719-.007813 0-.019531.003907-.027344.003907-.011719 0-.023437.003906-.03125.003906-1.351563.230468-2.402344 1.320312-2.570313 2.691406-.003906.023438-.003906.042969-.007812.066406-.011719.132813-.019531.261719-.015625.394532v-.003907 31.679688.015625c-.011719.554687.121094 1.121094.421875 1.640625.859375 1.492187 2.761719 2.003906 4.257812 1.140625l27.496094-15.875c1.019532-.589844 1.578125-1.65625 1.5625-2.75.015625-1.09375-.542968-2.160156-1.5625-2.746094l-27.375-15.804688c-.339844-.21875-.730468-.375-1.148437-.445312-.019531-.003906-.042969-.007812-.066407-.011719-.152343-.023437-.304687-.035156-.457031-.035156zm-.003906.28125c.140625 0 .28125.011719.417969.03125.023437.003906.042968.007813.0625.011719.378906.0625.734375.203125 1.046875.402344v.003906l27.382812 15.808594c.929688.535156 1.4375 1.507812 1.421875 2.503906v.003906c.015625.996094-.492187 1.964844-1.421875 2.5l-27.496093 15.878906c-1.363282.785156-3.089844.324219-3.875-1.039062-.273438-.472656-.394532-.988282-.382813-1.492188v-.003906c0-.011719 0-.015625 0-.019531v-31.683594c-.003906-.121094.003906-.238281.015625-.359375 0-.019531.003906-.039062.007812-.058594.148438-1.246094 1.105469-2.238281 2.332032-2.449218h.003906c.007812 0 .019531 0 .027344-.003907.011718 0 .019531-.003906.027344-.003906.019531-.003906.039062-.003906.0625-.007813.121093-.015624.246093-.023437.367187-.023437zm0 0" fill="#212121"/><path d="m15.386719 13.265625c-.011719 0-.023438 0-.035157 0-.335937.007813-.660156.183594-.839843.496094-.113281.199219-.152344.421875-.125.632812v7.636719c-.042969.214844-.007813.445312.109375.652344l.03125.054687c.230468.398438.703125.5625 1.136718.425781.109376-.03125.210938-.082031.304688-.148437l6.292969-3.632813 6.609375 3.816407-13.996094 8.078125c-.476562.273437-.636719.878906-.363281 1.355468.273437.476563.878906.636719 1.355469.363282l15.46875-8.929688c.320312-.1875.5-.523437.496093-.867187.003907-.347657-.175781-.683594-.496093-.871094l-15.367188-8.871094c-.097656-.070312-.207031-.125-.324219-.152343-.085937-.027344-.171875-.039063-.257812-.039063zm0 0" fill="url(#g)"/><path d="m15.386719 13.265625c-.011719 0-.023438 0-.035157 0-.335937.007813-.660156.183594-.839843.496094-.113281.199219-.152344.421875-.125.632812v.289063c.019531-.121094.058593-.246094.125-.359375.179687-.3125.503906-.488281.839843-.496094h.035157c.085937 0 .171875.011719.257812.039063.117188.027343.226563.082031.324219.152343l15.367188 8.871094c.234374.136719.390624.347656.457031.589844.027343-.09375.039062-.1875.039062-.28125.003907-.347657-.175781-.683594-.496093-.871094l-15.367188-8.871094c-.097656-.070312-.207031-.125-.324219-.152343-.085937-.027344-.171875-.039063-.257812-.039063zm-1 8.765625c-.023438.117188-.023438.242188 0 .363281zm13.996093 1.449219-13.507812 7.796875c-.40625.234375-.582031.710937-.457031 1.140625.070312-.234375.226562-.445313.457031-.578125l13.996094-8.078125zm0 0" fill="#fff" fill-opacity=".392157"/><path d="m14.386719 14.960938c-.011719.089843-.011719.183593 0 .273437zm7.875 4.421874-6.292969 3.632813c-.09375.066406-.195312.117187-.304688.148437-.433593.136719-.90625-.027343-1.136718-.425781l-.03125-.054687c-.054688-.09375-.089844-.191406-.109375-.289063v.472657c-.042969.21875-.007813.449218.109375.652343l.03125.058594c.230468.394531.703125.5625 1.136718.425781.109376-.03125.210938-.082031.304688-.148437l6.292969-3.636719 5.882812 3.398438.726563-.417969zm9.480469 4.234376c-.082032.179687-.21875.339843-.40625.449218l-15.46875 8.929688c-.476563.273437-1.082032.113281-1.355469-.363282-.015625-.023437-.027344-.050781-.039063-.078124-.132812.285156-.128906.625.039063.917968.273437.476563.878906.636719 1.355469.363282l15.46875-8.929688c.320312-.1875.5-.523438.496093-.871094 0-.144531-.027343-.285156-.089843-.417968zm0 0" fill-opacity=".235294"/><path d="m164.109328-73.513511c-.124988 0-.249976 0-.374964 0-3.582991.083325-7.040994 1.958146-8.957478 5.291161-1.208218 2.124797-1.624845 4.49957-1.333206 6.749356v81.450555c-.458289 2.291448-.083325 4.749546 1.166555 6.957669l.333302.583277c2.458099 4.249594 7.499284 5.999427 12.123842 4.541233 1.166555-.333301 2.249785-.874916 3.24969-1.583182l67.11859-38.7463 70.493269 40.704446-149.277412 86.158439c-5.082848 2.916389-6.791018 9.374105-3.87463 14.456953s9.374105 6.791018 14.456953 3.87463l164.984245-95.240905c3.41634-1.999809 5.332824-5.5828 5.291161-9.249117.041663-3.707979-1.874821-7.29097-5.291161-9.290779l-163.901015-94.615965c-1.041567-.749928-2.208123-1.333206-3.458003-1.624844-.916579-.291639-1.833159-.416627-2.749738-.416627zm0 0" fill="none" stroke="#212121" stroke-linecap="round" stroke-linejoin="round" stroke-width="3" transform="matrix(.093759 0 0 .093759 0 20.158175)"/></svg>

<?xml version="1.0" encoding="UTF-8"?>
<svg xmlns="http://www.w3.org/2000/svg" xmlns:xlink="http://www.w3.org/1999/xlink" width="48pt" height="48pt" viewBox="0 0 48 48" version="1.1">
<defs>
<radialGradient id="radial0" gradientUnits="userSpaceOnUse" cx="450.90894" cy="189.57936" fx="450.90894" fy="189.57936" r="21.166656" gradientTransform="matrix(0.000000261256,-0.117199,-0.210958,-0.000000152308,49.915931,95.393002)">
<stop offset="0" style="stop-color:rgb(0%,0%,0%);stop-opacity:0.313725;"/>
<stop offset="0.222222" style="stop-color:rgb(0%,0%,0%);stop-opacity:0.27451;"/>
<stop offset="1" style="stop-color:rgb(0%,0%,0%);stop-opacity:0;"/>
</radialGradient>
<radialGradient id="radial1" gradientUnits="userSpaceOnUse" cx="450.90894" cy="189.57936" fx="450.90894" fy="189.57936" r="21.166656" gradientTransform="matrix(-0.000000261256,0.117199,0.210958,0.000000152308,-29.077997,-11.291218)">
<stop offset="0" style="stop-color:rgb(0%,0%,0%);stop-opacity:0.313725;"/>
<stop offset="0.222222" style="stop-color:rgb(0%,0%,0%);stop-opacity:0.27451;"/>
<stop offset="1" style="stop-color:rgb(0%,0%,0%);stop-opacity:0;"/>
</radialGradient>
<radialGradient id="radial2" gradientUnits="userSpaceOnUse" cx="450.90894" cy="189.57936" fx="450.90894" fy="189.57936" r="21.166656" gradientTransform="matrix(-0.000000261256,-0.117199,0.210958,-0.000000152308,-29.077997,95.393002)">
<stop offset="0" style="stop-color:rgb(0%,0%,0%);stop-opacity:0.313725;"/>
<stop offset="0.222222" style="stop-color:rgb(0%,0%,0%);stop-opacity:0.27451;"/>
<stop offset="1" style="stop-color:rgb(0%,0%,0%);stop-opacity:0;"/>
</radialGradient>
<radialGradient id="radial3" gradientUnits="userSpaceOnUse" cx="450.90894" cy="189.57936" fx="450.90894" fy="189.57936" r="21.166656" gradientTransform="matrix(0.000000261256,0.117199,-0.210958,0.000000152308,49.915928,-11.291219)">
<stop offset="0" style="stop-color:rgb(0%,0%,0%);stop-opacity:0.313725;"/>
<stop offset="0.222222" style="stop-color:rgb(0%,0%,0%);stop-opacity:0.27451;"/>
<stop offset="1" style="stop-color:rgb(0%,0%,0%);stop-opacity:0;"/>
</radialGradient>
<linearGradient id="linear0" gradientUnits="userSpaceOnUse" x1="254" y1="233.5" x2="254" y2="-168.66667" gradientTransform="matrix(0.093759,0,0,0.093759,0,20.158175)">
<stop offset="0" style="stop-color:rgb(25.882353%,25.882353%,25.882353%);stop-opacity:1;"/>
<stop offset="1" style="stop-color:rgb(38.039216%,38.039216%,38.039216%);stop-opacity:1;"/>
</linearGradient>
<linearGradient id="linear1" gradientUnits="userSpaceOnUse" x1="740" y1="535.1181" x2="740" y2="1335.1182" gradientTransform="matrix(0.0248071,0,0,0.0248071,1.488423,0.00000000000000282)">
<stop offset="0" style="stop-color:rgb(61.176471%,80%,39.607843%);stop-opacity:1;"/>
<stop offset="1" style="stop-color:rgb(68.235294%,83.529412%,50.588235%);stop-opacity:1;"/>
</linearGradient>
</defs>
<g id="surface1">
<path style=" stroke:none;fill-rule:nonzero;fill:url(#radial0);" d="M 10.417969 42.050781 L 14.386719 42.050781 L 14.386719 40.066406 L 10.417969 40.066406 Z M 10.417969 42.050781 "/>
<path style=" stroke:none;fill-rule:nonzero;fill:url(#radial1);" d="M 10.417969 42.050781 L 6.449219 42.050781 L 6.449219 44.035156 L 10.417969 44.035156 Z M 10.417969 42.050781 "/>
<path style=" stroke:none;fill-rule:nonzero;fill:url(#radial2);" d="M 10.417969 42.050781 L 6.449219 42.050781 L 6.449219 40.066406 L 10.417969 40.066406 Z M 10.417969 42.050781 "/>
<path style=" stroke:none;fill-rule:nonzero;fill:url(#radial3);" d="M 10.417969 42.050781 L 14.386719 42.050781 L 14.386719 44.035156 L 10.417969 44.035156 Z M 10.417969 42.050781 "/>
<path style=" stroke:none;fill-rule:nonzero;fill:url(#linear0);" d="M 10.921875 4.34375 C 10.792969 4.34375 10.664062 4.351562 10.535156 4.367188 C 10.511719 4.371094 10.492188 4.375 10.472656 4.375 C 10.460938 4.378906 10.453125 4.378906 10.445312 4.382812 C 10.433594 4.382812 10.421875 4.382812 10.410156 4.386719 C 9.121094 4.605469 8.117188 5.644531 7.960938 6.957031 C 7.957031 6.976562 7.957031 6.996094 7.953125 7.019531 C 7.941406 7.144531 7.933594 7.269531 7.9375 7.394531 L 7.9375 39.074219 C 7.9375 39.082031 7.9375 39.085938 7.9375 39.09375 C 7.925781 39.625 8.054688 40.164062 8.339844 40.660156 C 9.164062 42.089844 10.976562 42.574219 12.40625 41.75 L 39.902344 25.871094 C 40.875 25.3125 41.410156 24.292969 41.394531 23.246094 C 41.410156 22.203125 40.875 21.183594 39.902344 20.621094 L 12.523438 4.8125 C 12.195312 4.601562 11.824219 4.457031 11.425781 4.386719 C 11.40625 4.382812 11.382812 4.378906 11.363281 4.378906 C 11.214844 4.355469 11.070312 4.34375 10.921875 4.34375 Z M 10.921875 4.34375 "/>
<path style=" stroke:none;fill-rule:nonzero;fill:rgb(100%,100%,100%);fill-opacity:0.392157;" d="M 10.921875 4.34375 C 10.792969 4.34375 10.664062 4.351562 10.535156 4.367188 C 10.511719 4.371094 10.492188 4.375 10.472656 4.375 C 10.460938 4.378906 10.453125 4.378906 10.445312 4.382812 C 10.433594 4.382812 10.421875 4.382812 10.410156 4.386719 C 9.121094 4.605469 8.117188 5.644531 7.960938 6.957031 C 7.957031 6.976562 7.957031 6.996094 7.953125 7.019531 C 7.941406 7.144531 7.933594 7.269531 7.9375 7.394531 L 7.9375 7.765625 C 7.941406 7.683594 7.945312 7.597656 7.953125 7.515625 C 7.957031 7.496094 7.957031 7.472656 7.960938 7.453125 C 8.117188 6.144531 9.121094 5.101562 10.410156 4.882812 C 10.421875 4.882812 10.433594 4.878906 10.445312 4.878906 C 10.453125 4.875 10.460938 4.875 10.472656 4.875 C 10.492188 4.871094 10.511719 4.867188 10.535156 4.863281 C 10.664062 4.847656 10.792969 4.839844 10.921875 4.839844 C 11.070312 4.839844 11.214844 4.851562 11.363281 4.875 C 11.382812 4.878906 11.40625 4.882812 11.425781 4.886719 C 11.824219 4.953125 12.195312 5.101562 12.523438 5.308594 L 39.902344 21.117188 C 40.800781 21.636719 41.324219 22.539062 41.386719 23.496094 C 41.394531 23.414062 41.394531 23.332031 41.394531 23.246094 C 41.410156 22.203125 40.875 21.183594 39.902344 20.621094 L 12.523438 4.8125 C 12.195312 4.601562 11.824219 4.457031 11.425781 4.386719 C 11.40625 4.382812 11.382812 4.378906 11.363281 4.378906 C 11.214844 4.355469 11.070312 4.34375 10.921875 4.34375 Z M 7.9375 39.121094 C 7.9375 39.152344 7.9375 39.1875 7.9375 39.21875 Z M 7.9375 39.121094 "/>
<path style=" stroke:none;fill-rule:nonzero;fill:rgb(0%,0%,0%);fill-opacity:0.235294;" d="M 7.9375 7.269531 C 7.9375 7.3125 7.9375 7.351562 7.9375 7.394531 Z M 41.367188 22.800781 C 41.25 23.679688 40.738281 24.496094 39.902344 24.976562 L 12.40625 40.851562 C 10.976562 41.679688 9.164062 41.191406 8.339844 39.765625 C 8.074219 39.308594 7.945312 38.8125 7.9375 38.324219 L 7.9375 39.074219 C 7.9375 39.082031 7.9375 39.085938 7.9375 39.09375 C 7.925781 39.625 8.054688 40.164062 8.339844 40.660156 C 9.164062 42.089844 10.976562 42.574219 12.40625 41.75 L 39.902344 25.871094 C 40.875 25.3125 41.410156 24.292969 41.394531 23.246094 C 41.398438 23.097656 41.386719 22.945312 41.367188 22.800781 Z M 7.9375 38.179688 L 7.9375 38.222656 C 7.9375 38.214844 7.9375 38.207031 7.9375 38.199219 C 7.9375 38.191406 7.9375 38.183594 7.9375 38.179688 Z M 7.9375 38.179688 "/>
<path style=" stroke:none;fill-rule:nonzero;fill:rgb(12.941176%,12.941176%,12.941176%);fill-opacity:1;" d="M 10.925781 4.203125 C 10.789062 4.203125 10.652344 4.210938 10.515625 4.226562 C 10.496094 4.230469 10.472656 4.234375 10.449219 4.238281 C 10.441406 4.238281 10.429688 4.242188 10.421875 4.242188 C 10.410156 4.242188 10.398438 4.246094 10.390625 4.246094 C 9.039062 4.476562 7.988281 5.566406 7.820312 6.9375 C 7.816406 6.960938 7.816406 6.980469 7.8125 7.003906 C 7.800781 7.136719 7.792969 7.265625 7.796875 7.398438 L 7.796875 7.394531 L 7.796875 39.074219 C 7.796875 39.082031 7.796875 39.085938 7.796875 39.089844 C 7.785156 39.644531 7.917969 40.210938 8.21875 40.730469 C 9.078125 42.222656 10.980469 42.734375 12.476562 41.871094 L 39.972656 25.996094 C 40.992188 25.40625 41.550781 24.339844 41.535156 23.246094 C 41.550781 22.152344 40.992188 21.085938 39.972656 20.5 L 12.597656 4.695312 C 12.257812 4.476562 11.867188 4.320312 11.449219 4.25 C 11.429688 4.246094 11.40625 4.242188 11.382812 4.238281 C 11.230469 4.214844 11.078125 4.203125 10.925781 4.203125 Z M 10.921875 4.484375 C 11.0625 4.484375 11.203125 4.496094 11.339844 4.515625 C 11.363281 4.519531 11.382812 4.523438 11.402344 4.527344 C 11.78125 4.589844 12.136719 4.730469 12.449219 4.929688 L 12.449219 4.933594 L 39.832031 20.742188 C 40.761719 21.277344 41.269531 22.25 41.253906 23.246094 L 41.253906 23.25 C 41.269531 24.246094 40.761719 25.214844 39.832031 25.75 L 12.335938 41.628906 C 10.972656 42.414062 9.246094 41.953125 8.460938 40.589844 C 8.1875 40.117188 8.066406 39.601562 8.078125 39.097656 L 8.078125 39.09375 C 8.078125 39.082031 8.078125 39.078125 8.078125 39.074219 L 8.078125 7.390625 C 8.074219 7.269531 8.082031 7.152344 8.09375 7.03125 C 8.09375 7.011719 8.097656 6.992188 8.101562 6.972656 C 8.25 5.726562 9.207031 4.734375 10.433594 4.523438 L 10.4375 4.523438 C 10.445312 4.523438 10.457031 4.523438 10.464844 4.519531 C 10.476562 4.519531 10.484375 4.515625 10.492188 4.515625 C 10.511719 4.511719 10.53125 4.511719 10.554688 4.507812 C 10.675781 4.492188 10.800781 4.484375 10.921875 4.484375 Z M 10.921875 4.484375 "/>
<path style=" stroke:none;fill-rule:nonzero;fill:url(#linear1);" d="M 15.386719 13.265625 C 15.375 13.265625 15.363281 13.265625 15.351562 13.265625 C 15.015625 13.273438 14.691406 13.449219 14.511719 13.761719 C 14.398438 13.960938 14.359375 14.183594 14.386719 14.394531 L 14.386719 22.03125 C 14.34375 22.246094 14.378906 22.476562 14.496094 22.683594 L 14.527344 22.738281 C 14.757812 23.136719 15.230469 23.300781 15.664062 23.164062 C 15.773438 23.132812 15.875 23.082031 15.96875 23.015625 L 22.261719 19.382812 L 28.871094 23.199219 L 14.875 31.277344 C 14.398438 31.550781 14.238281 32.15625 14.511719 32.632812 C 14.785156 33.109375 15.390625 33.269531 15.867188 32.996094 L 31.335938 24.066406 C 31.65625 23.878906 31.835938 23.542969 31.832031 23.199219 C 31.835938 22.851562 31.65625 22.515625 31.335938 22.328125 L 15.96875 13.457031 C 15.871094 13.386719 15.761719 13.332031 15.644531 13.304688 C 15.558594 13.277344 15.472656 13.265625 15.386719 13.265625 Z M 15.386719 13.265625 "/>
<path style=" stroke:none;fill-rule:nonzero;fill:rgb(100%,100%,100%);fill-opacity:0.392157;" d="M 15.386719 13.265625 C 15.375 13.265625 15.363281 13.265625 15.351562 13.265625 C 15.015625 13.273438 14.691406 13.449219 14.511719 13.761719 C 14.398438 13.960938 14.359375 14.183594 14.386719 14.394531 L 14.386719 14.683594 C 14.40625 14.5625 14.445312 14.4375 14.511719 14.324219 C 14.691406 14.011719 15.015625 13.835938 15.351562 13.828125 C 15.363281 13.828125 15.375 13.828125 15.386719 13.828125 C 15.472656 13.828125 15.558594 13.839844 15.644531 13.867188 C 15.761719 13.894531 15.871094 13.949219 15.96875 14.019531 L 31.335938 22.890625 C 31.570312 23.027344 31.726562 23.238281 31.792969 23.480469 C 31.820312 23.386719 31.832031 23.292969 31.832031 23.199219 C 31.835938 22.851562 31.65625 22.515625 31.335938 22.328125 L 15.96875 13.457031 C 15.871094 13.386719 15.761719 13.332031 15.644531 13.304688 C 15.558594 13.277344 15.472656 13.265625 15.386719 13.265625 Z M 14.386719 22.03125 C 14.363281 22.148438 14.363281 22.273438 14.386719 22.394531 Z M 28.382812 23.480469 L 14.875 31.277344 C 14.46875 31.511719 14.292969 31.988281 14.417969 32.417969 C 14.488281 32.183594 14.644531 31.972656 14.875 31.839844 L 28.871094 23.761719 Z M 28.382812 23.480469 "/>
<path style=" stroke:none;fill-rule:nonzero;fill:rgb(0%,0%,0%);fill-opacity:0.235294;" d="M 14.386719 14.960938 C 14.375 15.050781 14.375 15.144531 14.386719 15.234375 Z M 22.261719 19.382812 L 15.96875 23.015625 C 15.875 23.082031 15.773438 23.132812 15.664062 23.164062 C 15.230469 23.300781 14.757812 23.136719 14.527344 22.738281 L 14.496094 22.683594 C 14.441406 22.589844 14.40625 22.492188 14.386719 22.394531 L 14.386719 22.867188 C 14.34375 23.085938 14.378906 23.316406 14.496094 23.519531 L 14.527344 23.578125 C 14.757812 23.972656 15.230469 24.140625 15.664062 24.003906 C 15.773438 23.972656 15.875 23.921875 15.96875 23.855469 L 22.261719 20.21875 L 28.144531 23.617188 L 28.871094 23.199219 Z M 31.742188 23.617188 C 31.660156 23.796875 31.523438 23.957031 31.335938 24.066406 L 15.867188 32.996094 C 15.390625 33.269531 14.785156 33.109375 14.511719 32.632812 C 14.496094 32.609375 14.484375 32.582031 14.472656 32.554688 C 14.339844 32.839844 14.34375 33.179688 14.511719 33.472656 C 14.785156 33.949219 15.390625 34.109375 15.867188 33.835938 L 31.335938 24.90625 C 31.65625 24.71875 31.835938 24.382812 31.832031 24.035156 C 31.832031 23.890625 31.804688 23.75 31.742188 23.617188 Z M 31.742188 23.617188 "/>
<path style="fill:none;stroke-width:3;stroke-linecap:round;stroke-linejoin:round;stroke:rgb(12.941176%,12.941176%,12.941176%);stroke-opacity:1;stroke-miterlimit:4;" d="M 164.109328 -73.513511 C 163.98434 -73.513511 163.859352 -73.513511 163.734364 -73.513511 C 160.151373 -73.430186 156.69337 -71.555365 154.776886 -68.22235 C 153.568668 -66.097553 153.152041 -63.72278 153.44368 -61.472994 L 153.44368 19.977561 C 152.985391 22.269009 153.360355 24.727107 154.610235 26.93523 L 154.943537 27.518507 C 157.401636 31.768101 162.442821 33.517934 167.067379 32.05974 C 168.233934 31.726439 169.317164 31.184824 170.317069 30.476558 L 237.435659 -8.269742 L 307.928928 32.434704 L 158.651516 118.593143 C 153.568668 121.509532 151.860498 127.967248 154.776886 133.050096 C 157.693274 138.132944 164.150991 139.841114 169.233839 136.924726 L 334.218084 41.683821 C 337.634424 39.684012 339.550908 36.101021 339.509245 32.434704 C 339.550908 28.726725 337.634424 25.143734 334.218084 23.143925 L 170.317069 -71.47204 C 169.275502 -72.221968 168.108946 -72.805246 166.859066 -73.096884 C 165.942487 -73.388523 165.025907 -73.513511 164.109328 -73.513511 Z M 164.109328 -73.513511 " transform="matrix(0.093759,0,0,0.093759,0,20.158175)"/>
</g>
</svg>
